src/assets/outline/Okb.svg

<?xml version="1.0" encoding="UTF-8"?>
<svg width="24" height="24" viewBox="0 0 24 24" xmlns="http://www.w3.org/2000/svg">
 <path d="m17 17.75c-3.17 0-5.75-2.58-5.75-5.75s2.58-5.75 5.75-5.75 5.75 2.58 5.75 5.75-2.58 5.75-5.75 5.75zm0-10c-2.34 0-4.25 1.91-4.25 4.25s1.91 4.25 4.25 4.25 4.25-1.91 4.25-4.25-1.91-4.25-4.25-4.25z"/>
 <path d="m12 22.75c-3.17 0-5.75-2.58-5.75-5.75s2.58-5.75 5.75-5.75 5.75 2.58 5.75 5.75-2.58 5.75-5.75 5.75zm0-10c-2.34 0-4.25 1.91-4.25 4.25s1.91 4.25 4.25 4.25 4.25-1.91 4.25-4.25-1.91-4.25-4.25-4.25z"/>
 <path d="m12 12.75c-3.17 0-5.75-2.58-5.75-5.75s2.58-5.75 5.75-5.75 5.75 2.58 5.75 5.75-2.58 5.75-5.75 5.75zm0-10c-2.34 0-4.25 1.91-4.25 4.25s1.91 4.25 4.25 4.25 4.25-1.91 4.25-4.25-1.91-4.25-4.25-4.25z"/>
 <path d="m7 17.75c-3.17 0-5.75-2.58-5.75-5.75s2.58-5.75 5.75-5.75 5.75 2.58 5.75 5.75-2.58 5.75-5.75 5.75zm0-10c-2.34 0-4.25 1.91-4.25 4.25s1.91 4.25 4.25 4.25 4.25-1.91 4.25-4.25-1.91-4.25-4.25-4.25z"/>
</svg>

<svg width="24" height="24" viewBox="0 0 24 24"  xmlns="http://www.w3.org/2000/svg">
<path d="M17 17.75C13.83 17.75 11.25 15.17 11.25 12C11.25 8.83 13.83 6.25 17 6.25C20.17 6.25 22.75 8.83 22.75 12C22.75 15.17 20.17 17.75 17 17.75ZM17 7.75C14.66 7.75 12.75 9.66 12.75 12C12.75 14.34 14.66 16.25 17 16.25C19.34 16.25 21.25 14.34 21.25 12C21.25 9.66 19.34 7.75 17 7.75Z" />
<path d="M12 22.75C8.83 22.75 6.25 20.17 6.25 17C6.25 13.83 8.83 11.25 12 11.25C15.17 11.25 17.75 13.83 17.75 17C17.75 20.17 15.17 22.75 12 22.75ZM12 12.75C9.66 12.75 7.75 14.66 7.75 17C7.75 19.34 9.66 21.25 12 21.25C14.34 21.25 16.25 19.34 16.25 17C16.25 14.66 14.34 12.75 12 12.75Z" />
<path d="M12 12.75C8.83 12.75 6.25 10.17 6.25 7C6.25 3.83 8.83 1.25 12 1.25C15.17 1.25 17.75 3.83 17.75 7C17.75 10.17 15.17 12.75 12 12.75ZM12 2.75C9.66 2.75 7.75 4.66 7.75 7C7.75 9.34 9.66 11.25 12 11.25C14.34 11.25 16.25 9.34 16.25 7C16.25 4.66 14.34 2.75 12 2.75Z" />
<path d="M7 17.75C3.83 17.75 1.25 15.17 1.25 12C1.25 8.83 3.83 6.25 7 6.25C10.17 6.25 12.75 8.83 12.75 12C12.75 15.17 10.17 17.75 7 17.75ZM7 7.75C4.66 7.75 2.75 9.66 2.75 12C2.75 14.34 4.66 16.25 7 16.25C9.34 16.25 11.25 14.34 11.25 12C11.25 9.66 9.34 7.75 7 7.75Z" />
</svg>
